X:49
T:Miss Manners Hornpipe. Le4.049
T:Kershaw's Hp,aka. Le4.049
T:Black's Hp,aka. Le4.049
T:Lady Flashdash,aka. Le4.049
B:L.Leadley MS#4 c1850
Z:Village Music Project, 2016 Steve Mansfield
M:C|
L:1/8
Q:2/4=75
N:* D2 / d2 in Ms
K:D
A | dcdf ecAc | dBGB AFDF | GFGA Bgfe | dcBc A2A2 |
(dA)A2 (eA)A2 | fefg ecAF | GBAG FDEC | D2D2"*"D3 :|
|:A | dcdA FAFA | (EG)G2 (EG)G2 | gfed cdec | dcBd A2A2 |
(dA)A2 (eA)A2 | fefg ecAF | gbag fdec | d2d2"*" d3 :|

